Sources/FrostedUI/Resources/Icons.xcassets/instagramSize32.imageset/instagram-size-32.svg

<svg
  width="32"
  height="32"
  viewBox="0 0 32 32"
  fill="none"
  xmlns="http://www.w3.org/2000/svg"
  data-fui-icon="true"
>
  <path
    d="M16 5.61565C19.382 5.61565 19.7827 5.62832 21.1185 5.68934C21.9215 5.69904 22.7169 5.84666 23.4699 6.12577C24.0201 6.32884 24.5179 6.65268 24.9265 7.07346C25.3473 7.48209 25.6712 7.97985 25.8743 8.53013C26.1533 9.28314 26.3009 10.0785 26.3107 10.8815C26.3717 12.2173 26.3844 12.618 26.3844 16C26.3844 19.382 26.3717 19.7827 26.3107 21.1185C26.3009 21.9215 26.1533 22.7169 25.8743 23.4699C25.6635 24.0163 25.3407 24.5125 24.9265 24.9265C24.5125 25.3407 24.0163 25.6635 23.4699 25.8743C22.7169 26.1533 21.9215 26.3009 21.1185 26.3107C19.7827 26.3717 19.382 26.3844 16 26.3844C12.618 26.3844 12.2173 26.3717 10.8815 26.3107C10.0781 26.3011 9.28234 26.1535 8.52897 25.8743C7.9791 25.6711 7.48175 25.3472 7.07345 24.9265C6.65266 24.5179 6.32882 24.0201 6.12575 23.4699C5.84665 22.7169 5.69902 21.9215 5.68933 21.1185C5.6283 19.7827 5.61563 19.382 5.61563 16C5.61563 12.618 5.6283 12.2173 5.68933 10.8815C5.69902 10.0785 5.84665 9.28314 6.12575 8.53013C6.32882 7.97985 6.65266 7.48209 7.07345 7.07346C7.48208 6.65268 7.97984 6.32884 8.53012 6.12577C9.28313 5.84666 10.0785 5.69904 10.8815 5.68934C12.2173 5.62832 12.618 5.61565 16 5.61565ZM16 3.33334C12.5604 3.33334 12.1286 3.34832 10.7779 3.40934C9.72713 3.4303 8.68756 3.62926 7.70333 3.99777C6.85773 4.31614 6.09181 4.81522 5.45902 5.4602C4.81461 6.09276 4.31593 6.85826 3.99776 7.70334C3.62965 8.68764 3.43107 9.72721 3.41047 10.7779C3.34714 12.1286 3.33333 12.5604 3.33333 16C3.33333 19.4396 3.3483 19.8713 3.40933 21.2221C3.43029 22.2728 3.62925 23.3124 3.99776 24.2967C4.31613 25.1423 4.81521 25.9081 5.46018 26.5409C6.09274 27.1853 6.85825 27.684 7.70333 28.0023C8.68762 28.3704 9.7272 28.5689 10.7779 28.5895C12.1286 28.6528 12.5604 28.6667 16 28.6667C19.4396 28.6667 19.8713 28.6517 21.2221 28.5907C22.2728 28.5697 23.3124 28.3708 24.2967 28.0023C25.1384 27.6768 25.9028 27.1791 26.5409 26.5409C27.1791 25.9028 27.6768 25.1384 28.0023 24.2967C28.3704 23.3124 28.5689 22.2728 28.5895 21.2221C28.6528 19.8713 28.6667 19.4396 28.6667 16C28.6667 12.5604 28.6517 12.1286 28.5907 10.7779C28.5697 9.72714 28.3708 8.68757 28.0023 7.70334C27.6839 6.85774 27.1848 6.09182 26.5399 5.45904C25.9072 4.81462 25.1417 4.31594 24.2967 3.99777C23.3124 3.62966 22.2728 3.43109 21.2221 3.41049C19.8713 3.34716 19.4396 3.33334 16 3.33334ZM16 9.4951C14.7135 9.4951 13.4557 9.87661 12.3861 10.5914C11.3163 11.3061 10.4826 12.3221 9.99025 13.5107C9.4979 14.6993 9.36909 16.0072 9.62008 17.2691C9.87108 18.5309 10.4906 19.69 11.4003 20.5996C12.3101 21.5093 13.4691 22.1289 14.7309 22.3799C15.9928 22.6309 17.3007 22.5021 18.4893 22.0097C19.678 21.5175 20.6939 20.6836 21.4087 19.614C22.1235 18.5443 22.5049 17.2865 22.5049 16C22.5049 14.2748 21.8196 12.6203 20.5996 11.4003C19.3797 10.1804 17.7252 9.4951 16 9.4951ZM16 20.2227C15.1648 20.2227 14.3484 19.9749 13.654 19.5109C12.9596 19.0469 12.4184 18.3875 12.0988 17.6159C11.7792 16.8444 11.6956 15.9953 11.8585 15.1763C12.0215 14.3571 12.4236 13.6047 13.0142 13.0142C13.6047 12.4236 14.3571 12.0215 15.1763 11.8585C15.9953 11.6956 16.8444 11.7792 17.6159 12.0988C18.3875 12.4184 19.0469 12.9597 19.5109 13.654C19.9749 14.3484 20.2227 15.1648 20.2227 16C20.2227 17.1199 19.7777 18.194 18.9859 18.9859C18.194 19.7777 17.1199 20.2227 16 20.2227ZM22.7617 7.71832C22.4611 7.71832 22.1672 7.80746 21.9172 7.97448C21.6673 8.1415 21.4724 8.37889 21.3575 8.65664C21.2424 8.93438 21.2123 9.24 21.2709 9.53485C21.3296 9.8297 21.4743 10.1005 21.6869 10.3131C21.8995 10.5257 22.1703 10.6705 22.4652 10.7291C22.76 10.7878 23.0656 10.7577 23.3433 10.6426C23.6211 10.5276 23.8585 10.3327 24.0255 10.0828C24.1925 9.83282 24.2817 9.53894 24.2817 9.23832C24.2817 8.83518 24.1216 8.44857 23.8365 8.16352C23.5515 7.87845 23.1648 7.71832 22.7617 7.71832Z"
    fill="currentColor"
  />
</svg>

<svg xmlns="http://www.w3.org/2000/svg" width="32" height="32" fill="none" data-fui-icon="true" viewBox="0 0 32 32"><path fill="currentColor" d="M16 5.616c3.382 0 3.783.012 5.119.073a7 7 0 0 1 2.35.437c.551.203 1.049.527 1.457.947.421.41.745.907.948 1.457.28.753.427 1.549.437 2.352.06 1.335.073 1.736.073 5.118s-.012 3.783-.073 5.119a7 7 0 0 1-.437 2.35 4.2 4.2 0 0 1-2.404 2.405 7 7 0 0 1-2.351.437c-1.336.06-1.737.073-5.119.073s-3.783-.012-5.118-.073a7 7 0 0 1-2.353-.437 3.9 3.9 0 0 1-1.456-.947 3.9 3.9 0 0 1-.947-1.457 7 7 0 0 1-.437-2.351c-.06-1.336-.073-1.737-.073-5.119s.012-3.783.073-5.118a7 7 0 0 1 .437-2.352c.203-.55.527-1.048.947-1.457.41-.42.907-.744 1.457-.947a7 7 0 0 1 2.352-.437c1.335-.06 1.736-.073 5.118-.073m0-2.283c-3.44 0-3.871.015-5.222.076-1.05.021-2.09.22-3.075.589A6.2 6.2 0 0 0 5.46 5.46a6.2 6.2 0 0 0-1.461 2.243 9.3 9.3 0 0 0-.588 3.075c-.063 1.35-.077 1.782-.077 5.222s.015 3.871.076 5.222c.021 1.05.22 2.09.589 3.075A6.2 6.2 0 0 0 5.46 26.54a6.2 6.2 0 0 0 2.243 1.461 9.3 9.3 0 0 0 3.075.588c1.35.063 1.782.077 5.222.077s3.871-.015 5.222-.076a9.3 9.3 0 0 0 3.075-.589 6.48 6.48 0 0 0 3.705-3.705 9.3 9.3 0 0 0 .588-3.075c.063-1.35.077-1.782.077-5.222s-.015-3.871-.076-5.222a9.3 9.3 0 0 0-.589-3.075A6.2 6.2 0 0 0 26.54 5.46a6.2 6.2 0 0 0-2.243-1.461 9.3 9.3 0 0 0-3.075-.588c-1.35-.063-1.782-.077-5.222-.077m0 6.162a6.504 6.504 0 1 0 0 13.009 6.504 6.504 0 0 0 0-13.009m0 10.728a4.223 4.223 0 1 1 0-8.446 4.223 4.223 0 0 1 0 8.446m6.762-12.505a1.52 1.52 0 1 0 0 3.04 1.52 1.52 0 0 0 0-3.04"/></svg>
